X:1
T:S'alcun vi mira
T:Madalena Casulana
T:Source : Secondo libro de madrigali a quattro voci---Venetia---G.Scotto---1570. Editor : André Vierendeels (19/08/17).
T:S'alcun vi mira
T:©
T:©
T:©
T:©
C:Madalena Casulana
Z:©
%%score [ 1 2 3 4 ]
L:1/8
Q:1/4=120
M:2/2
K:F
V:1 treble nm="Soprano 1" snm="S 1"
V:2 treble nm="Soprano 2" snm="S 2"
V:3 treble-8 nm="Tenor" snm="T"
V:4 bass nm="Bass" snm="B"
V:1
 z4 G4 | B6 B2 | B4 c4 | d8 | d4 z2 =B2- | B2 c2 c2 _e2- | e2 d2 c4 | d6 f2- | f2 e2 d4 | %9
w: S'al-|cun vi|mi- ra|fi-|so, ve-|* de scol- pit'|_ in voi|per man|_ d'a- mo-|
 e4 z2 e2 | f6 d2 | c2 d2 B4 | c2 c2 c2 d2 | c2 B2 c3 B | AGAB c2 f2 | d4 c4 | d4 e2 e2 | %17
w: re, un|no- vo|pa- ra- di-|so, di leg- gia-|dria di gra- *|* * * * * tia'e|di va-|lo- re, di|
 e2 f2 e2 d2 | e4 c4 | f3 e d2 _e2 | d4 =B4 | z2 c2 c4- | c2 c2 B2 A2 | F2 G2 A4 | c2 c4 c2 | %25
w: leg- gia- dria di|gra- tia'e|di _ _ va-|lo- re,|ma s'ei|_ vi donn' il|co- * re,|spe- ran- do|
 d3 d e2 c2- | c2 f4 d2 | ^c4 d4 | z2 =B2 c4 | d4 B2 c2 | B2 d4 f2- | f2 c2 _e4- | e4 d2 f2 | %33
w: per ser- vir tro-|* var mer-|ce- de,|s'in- gann'|e del su'er-|ror pen- ti-|* to gri-|* da, al|
 f2 _e2 d2 c2 | c4 c4 | z2 c4 A2 | f4 d2 _e2 | d2 A2 B4- | B4 c4 | d8 | =B8 |] %41
w: ciel ch'in don- na|ve- de,|in fi-|ni- ta bel-|lezz' e po-|* ca|fe-|de.|
V:2
 D8 | G6 G2 | G4 G4 | B8 | A4 z2 D2- | D2 G2 A2 B2- | B2 B2 A4 | B4 B4- | B2 G2 G4 | G4 z2 G2 | %10
w: S'al-|cun vi|mi- ra|fi-|so, ve-|* de scol- pit'|_ in voi|per man|_ d'a- mo-|re, un|
 A6 B2 | A2 F2 G4 | A4 z2 A2 | A2 B2 A2 G2 | c3 B AG A2 | B2 A2 A2 c2- | c=B/A/ B2 c4 | %17
w: no- vo|pa- ra- di-|so, di|leg- gia- dria di|gra- * * * *|tia'e di va- lo-|* * * * re,|
 z2 A2 c2 d2 | c2 G2 A2 A2 | A4 B2 G2- | G2 ^F2 G4 | z2 E2 F3 G | A2 A2 G2 E2 | F2 ED E2 E2 | %24
w: di leg- gia-|dria di gra- tia'e|di va- lo-|* * re,|ma s'ei _|_ vi donn' il|co- * * re, spe-|
 A4 c2 c2- | c2 =B2 c2 G2 | A6 A2 | A4 ^F2 F2 | G4 A4 | F2 G2 F3 E | D2 B2 B4 | A4 B4 | B2 B,2 B4 | %33
w: ran- do per|_ ser- vir tro-|var mer-|ce- de, s'in-|gann' e|del su'er- ror _|_ pen- ti-|to gri-|da, al ciel|
 B2 B4 A2 | G4 A4 | z2 A4 F2 | A4 G2 G2 | ^F4 G4 | G4 G2 G2- | G2 ^FE F4 | G8 |] %41
w: ch'in don- na|ve- de,|in fi-|ni- ta bel-|lezz' e|po- ca fe-||de.|
V:3
 B8 | _e6 e2 | _e8 | d4 g4- | g2 ^f2 z2 g2- | g2 e2 f2 g2- | g2 f2 f4 | f2 f4 d2- | %8
w: S'al-|cun vi|mi-|ra fi-|* so, ve-|* de scol- pit'|_ in voi|per man d'a-|
 d2 c3 =B/A/ B2 | c2 G2 c4- | c4 d4 | f2 f2 e4 | f4 z2 f2 | f2 g2 f2 e2 | f6 d2 | Bcde f2 a2 | %16
w: * mo- * * *|re, un no-|* vo|pa- ra- di-|so, di|leg- gia- dria di|gra- tia'e|di _ _ _ _ va-|
 g4 c2 g2 | g2 f2 g4- | g2 e4 f2 | c2 d4 c2 | A4 G4 | z2 g2 a3 g | f2 f2 d2 ^c2 | d4 c4 | %24
w: lo- re, di|leg- gia- dria|_ di gra-|tia'e di va-|lo- re,|ma s'ei vi|donn' il co- *|* re,|
 f2 f4 e2 | g6 e2 | f2 c2 d2 f2 | e4 a4 | z2 d2 f2 F2 | A2 B2 d2 c2 | f4 f2 d2 | c2 f2 g4- | %32
w: spe- ran- do|per ser-|vir tro- var mer-|ce- de,|s'in- gann' e|del su'er- ror pen-|ti- to, pen-|ti- to gri-|
 g4 f2 d2 | d2 g2 f2 f2 | e4 f4 | z2 f4 c2 | d4 =B2 c2 | A2 d2 d4 | G8 | A8 | G8 |] %41
w: * da, al|ciel ch'in don- na|ve- de,|in fi-|ni- ta bel-|lezz' e po-|ca|fe-|de.|
V:4
 G,8 | _E,6 E,2 | _E,4 C,4 | G,8 | D,4 z2 G,2- | G,2 C,2 F,2 _E,2- | E,2 B,,2 F,4 | B,,4 B,4- | %8
w: S'al-|cun vi|mi- ra|fi-|so, ve-|* de scol- pit'|_ in voi|per man|
 B,2 C2 G,4 | C,4 z2 C,2 | F,6 G,2 | A,2 B,2 G,4 | F,8 | z8 | z8 | z8 | z4 z2 C2 | C2 D2 C2 =B,2 | %18
w: _ d'a- mo-|re, un|no- vo|pa- ra di-|so,||||di|leg- gia- dria di|
"^-natural" C3 B, A,G, F,2- | F,2 D,2 G,2 C,2 | D,4 G,4 | z2 C,2 F,4- | F,2 F,2 G,2 A,2 | B,4 A,4 | %24
w: gra- * * * *|* tia'e di va-|lo- re,|ma s'ei|_ vi donn' il|co- re,|
 F,2 F,4 A,2 | G,2 G,2 C,2 C,2 | F,4 D,4 | A,4 D,4 | z2 G,2 F,4 | D,2 B,,4 A,,2 | B,,2 B,,2 B,4 | %31
w: spe- ran- do|per ser- vir tro-|var mer-|ce- de,|s'in- gann'|e del su'er-|ror pen- ti-|
 F,4 _E,4- | E,4 B,,2 B,,2 | B,2 _E,2 B,2 F,2 | C4 F,4 | z2 F,4 F,2 | D,4 G,2 C,2 | D,4 G,4 | %38
w: to gri-|* da, al|ciel ch'in don- na|ve- de,|in fi-|ni- ta bel-|lezz' e|
 _E,4 E,4 | D,8 | G,,8 |] %41
w: po- ca|fe-|de.|

